frontend/web/images/icon/view.svg

<svg xmlns="http://www.w3.org/2000/svg" viewBox="0 0 134.7 91.4"><path d="M126.5 44.6c-1-1.6-26.7-39.5-59.1-39.5S9.3 43 8.2 44.6l-.7 1.1.7 1.1c1.1 1.6 26.7 39.5 59.2 39.5s58.1-37.9 59.2-39.5l.7-1.1-.8-1.1zM67.4 82.3c-27.3 0-50.6-30.4-55.1-36.6C16.8 39.4 40 9.1 67.4 9.1c27.3 0 50.6 30.4 55.1 36.6-4.6 6.2-27.8 36.6-55.1 36.6z"/><path d="M67.4 21.8c-12.8 0-23.3 10.4-23.3 23.3 0 12.8 10.4 23.3 23.3 23.3S90.7 58 90.7 45.1c0-12.8-10.5-23.3-23.3-23.3zm0 42.6c-10.6 0-19.3-8.7-19.3-19.3 0-10.6 8.7-19.3 19.3-19.3s19.3 8.7 19.3 19.3c0 10.6-8.7 19.3-19.3 19.3z"/><path d="M59.5 30.2c-3.3 0-5.9 2.6-5.9 5.9 0 3.3 2.6 5.9 5.9 5.9 3.3 0 5.9-2.6 5.9-5.9-.1-3.2-2.7-5.9-5.9-5.9zm0 7.8c-1 0-1.9-.9-1.9-1.9 0-1 .9-1.9 1.9-1.9s1.9.9 1.9 1.9c-.1 1.1-.9 1.9-1.9 1.9z"/></svg>

<?xml version="1.0" encoding="utf-8"?>
<!-- Generator: Adobe Illustrator 17.1.0, SVG Export Plug-In . SVG Version: 6.00 Build 0)  -->
<!DOCTYPE svg PUBLIC "-//W3C//DTD SVG 1.1//EN" "http://www.w3.org/Graphics/SVG/1.1/DTD/svg11.dtd">
<svg version="1.1" id="Layer_1" xmlns="http://www.w3.org/2000/svg" xmlns:xlink="http://www.w3.org/1999/xlink" x="0px" y="0px"
	 viewBox="0 0 134.7 91.4" enable-background="new 0 0 134.7 91.4" xml:space="preserve">
<g>
	<path d="M126.5,44.6C125.5,43,99.8,5.1,67.4,5.1S9.3,43,8.2,44.6l-0.7,1.1l0.7,1.1c1.1,1.6,26.7,39.5,59.2,39.5
		s58.1-37.9,59.2-39.5l0.7-1.1L126.5,44.6z M67.4,82.3c-27.3,0-50.6-30.4-55.1-36.6C16.8,39.4,40,9.1,67.4,9.1
		c27.3,0,50.6,30.4,55.1,36.6C117.9,51.9,94.7,82.3,67.4,82.3z"/>
	<path d="M67.4,21.8c-12.8,0-23.3,10.4-23.3,23.3c0,12.8,10.4,23.3,23.3,23.3s23.3-10.4,23.3-23.3C90.7,32.3,80.2,21.8,67.4,21.8z
		 M67.4,64.4c-10.6,0-19.3-8.7-19.3-19.3c0-10.6,8.7-19.3,19.3-19.3s19.3,8.7,19.3,19.3C86.7,55.7,78,64.4,67.4,64.4z"/>
	<path d="M59.5,30.2c-3.3,0-5.9,2.6-5.9,5.9c0,3.3,2.6,5.9,5.9,5.9c3.3,0,5.9-2.6,5.9-5.9C65.3,32.9,62.7,30.2,59.5,30.2z M59.5,38
		c-1,0-1.9-0.9-1.9-1.9c0-1,0.9-1.9,1.9-1.9s1.9,0.9,1.9,1.9C61.3,37.2,60.5,38,59.5,38z"/>
</g>
</svg>
